src/assets/images/setting.svg

<svg fill="none" height="22" viewBox="0 0 23 22" width="23" xmlns="http://www.w3.org/2000/svg"><g stroke="#ededed" stroke-linejoin="round"><path d="m10.9998 13.7485c1.5186 0 2.7497-1.2311 2.7497-2.7497 0-1.51867-1.2311-2.74978-2.7497-2.74978-1.51869 0-2.7498 1.23111-2.7498 2.74978 0 1.5186 1.23111 2.7497 2.7498 2.7497z"/><path d="m17.7832 13.7492c-.1221.2765-.1584.5831-.1045.8805.0539.2973.1956.5717.4069.7877l.055.055c.1705.1702.3057.3724.3979.595.0923.2225.1398.461.1398.702 0 .2409-.0475.4794-.1398.702-.0922.2225-.2274.4247-.3979.5949-.1702.1705-.3724.3057-.5949.3979-.2226.0923-.4611.1398-.702.1398s-.4795-.0475-.702-.1398c-.2226-.0922-.4248-.2274-.595-.3979l-.055-.055c-.216-.2113-.4904-.353-.7877-.4069-.2974-.054-.604-.0176-.8805.1045-.2711.1161-.5023.3091-.6652.555-.1628.2459-.2502.5341-.2514.829v.1558c0 .4862-.1931.9525-.5369 1.2963s-.8101.5369-1.2963.5369c-.4861 0-.9524-.1931-1.2962-.5369-.34379-.3438-.53693-.8101-.53693-1.2963v-.0825c-.00709-.3034-.10529-.5976-.28184-.8444-.17654-.2469-.42325-.4349-.70807-.5396-.27646-.122-.58313-.1584-.88046-.1045-.29734.0539-.57171.1957-.78773.407l-.05499.055c-.17025.1704-.37243.3056-.59498.3979-.22254.0922-.46108.1397-.70199.1397s-.47945-.0475-.702-.1397c-.22254-.0923-.42472-.2275-.59497-.3979-.17044-.1703-.30566-.3725-.39791-.595-.09225-.2226-.13974-.4611-.13974-.702s.04749-.4795.13974-.702c.09225-.2226.22747-.4247.39791-.595l.05499-.055c.21131-.216.35306-.4904.40697-.7877s.01752-.604-.10449-.8805c-.11619-.2711-.30912-.5023-.55503-.6651-.24591-.1629-.53407-.2503-.82902-.2515h-.15582c-.48619 0-.95246-.1931-1.29625-.5369-.34378-.3438-.536921-.81-.536921-1.2962s.193141-.9525.536921-1.29628c.34379-.34378.81006-.53692 1.29625-.53692h.08249c.30339-.0071.59762-.1053.84445-.28184.24684-.17654.43485-.42326.5396-.70808.12201-.27645.15841-.58312.1045-.88046-.05392-.29733-.19567-.5717-.40697-.78772l-.055-.055c-.17044-.17025-.30565-.37243-.39791-.59497-.09225-.22255-.13973-.46109-.13973-.702s.04748-.47945.13973-.70199c.09226-.22255.22747-.42473.39791-.59498.17025-.17044.37243-.30565.59498-.39791.22254-.09225.46108-.13973.70199-.13973s.47945.04748.702.13973c.22254.09226.42472.22747.59497.39791l.055.055c.21602.2113.49038.35305.78772.40697.29734.05391.60401.01751.88046-.1045h.07333c.2711-.11619.50231-.30911.66516-.55502.16286-.24592.25025-.53408.25143-.82902v-.15582c0-.48619.19314-.95247.53692-1.29625.34383-.34379.81003-.536928 1.29623-.536928s.9525.193138 1.2963.536928c.3438.34378.5369.81006.5369 1.29625v.08249c.0012.29494.0886.58311.2514.82902.1629.24591.3941.43883.6652.55502.2764.12202.5831.15841.8804.1045.2974-.05391.5717-.19566.7878-.40697l.055-.055c.1702-.17044.3724-.30565.5949-.3979.2226-.09226.4611-.13974.702-.13974s.4795.04748.702.13974c.2226.09225.4247.22746.595.3979.1704.17026.3057.37244.3979.59498.0923.22254.1397.46109.1397.70199 0 .24091-.0474.47946-.1397.702-.0922.22254-.2275.42472-.3979.59497l-.055.055c-.2113.21602-.353.49039-.407.78772-.0539.29734-.0175.60401.1045.88047v.07332c.1162.2711.3091.50231.5551.66516.2459.16286.534.25025.829.25143h.1558c.4862 0 .9525.19314 1.2962.53693.3438.3438.537.8101.537 1.2962 0 .4862-.1932.9525-.537 1.2963-.3437.3438-.81.5369-1.2962.5369h-.0825c-.2949.0012-.5831.0886-.829.2514-.2459.1629-.4389.3941-.555.6652z"/></g></svg>

<svg width="23" height="22" viewBox="0 0 23 22" fill="none" xmlns="http://www.w3.org/2000/svg">
<g clipPath="url(#clip0_1121_3264)">
<path d="M10.9998 13.7485C12.5184 13.7485 13.7495 12.5174 13.7495 10.9988C13.7495 9.48013 12.5184 8.24902 10.9998 8.24902C9.48111 8.24902 8.25 9.48013 8.25 10.9988C8.25 12.5174 9.48111 13.7485 10.9998 13.7485Z" stroke="#EDEDED" strokeWidth="1.83317" strokeLinecap="round" stroke-linejoin="round"/>
<path d="M17.7832 13.7492C17.6611 14.0257 17.6248 14.3323 17.6787 14.6297C17.7326 14.927 17.8743 15.2014 18.0856 15.4174L18.1406 15.4724C18.3111 15.6426 18.4463 15.8448 18.5385 16.0674C18.6308 16.2899 18.6783 16.5284 18.6783 16.7694C18.6783 17.0103 18.6308 17.2488 18.5385 17.4714C18.4463 17.6939 18.3111 17.8961 18.1406 18.0663C17.9704 18.2368 17.7682 18.372 17.5457 18.4642C17.3231 18.5565 17.0846 18.604 16.8437 18.604C16.6028 18.604 16.3642 18.5565 16.1417 18.4642C15.9191 18.372 15.7169 18.2368 15.5467 18.0663L15.4917 18.0113C15.2757 17.8 15.0013 17.6583 14.704 17.6044C14.4066 17.5504 14.1 17.5868 13.8235 17.7089C13.5524 17.825 13.3212 18.018 13.1583 18.2639C12.9955 18.5098 12.9081 18.798 12.9069 19.0929V19.2487C12.9069 19.7349 12.7138 20.2012 12.37 20.545C12.0262 20.8888 11.5599 21.0819 11.0737 21.0819C10.5876 21.0819 10.1213 20.8888 9.7775 20.545C9.43371 20.2012 9.24057 19.7349 9.24057 19.2487V19.1662C9.23348 18.8628 9.13528 18.5686 8.95873 18.3218C8.78219 18.0749 8.53548 17.8869 8.25066 17.7822C7.9742 17.6602 7.66753 17.6238 7.3702 17.6777C7.07286 17.7316 6.79849 17.8734 6.58247 18.0847L6.52748 18.1397C6.35723 18.3101 6.15505 18.4453 5.9325 18.5376C5.70996 18.6298 5.47142 18.6773 5.23051 18.6773C4.9896 18.6773 4.75106 18.6298 4.52851 18.5376C4.30597 18.4453 4.10379 18.3101 3.93354 18.1397C3.7631 17.9694 3.62788 17.7672 3.53563 17.5447C3.44338 17.3221 3.39589 17.0836 3.39589 16.8427C3.39589 16.6018 3.44338 16.3632 3.53563 16.1407C3.62788 15.9181 3.7631 15.716 3.93354 15.5457L3.98853 15.4907C4.19984 15.2747 4.34159 15.0003 4.3955 14.703C4.44941 14.4057 4.41302 14.099 4.29101 13.8225C4.17482 13.5514 3.98189 13.3202 3.73598 13.1574C3.49007 12.9945 3.20191 12.9071 2.90696 12.9059H2.75114C2.26495 12.9059 1.79868 12.7128 1.45489 12.369C1.11111 12.0252 0.917969 11.559 0.917969 11.0728C0.917969 10.5866 1.11111 10.1203 1.45489 9.77652C1.79868 9.43274 2.26495 9.2396 2.75114 9.2396H2.83363C3.13702 9.2325 3.43125 9.1343 3.67808 8.95776C3.92492 8.78122 4.11293 8.5345 4.21768 8.24968C4.33969 7.97323 4.37609 7.66656 4.32218 7.36922C4.26826 7.07189 4.12651 6.79752 3.91521 6.5815L3.86021 6.5265C3.68977 6.35625 3.55456 6.15407 3.4623 5.93153C3.37005 5.70898 3.32257 5.47044 3.32257 5.22953C3.32257 4.98862 3.37005 4.75008 3.4623 4.52754C3.55456 4.30499 3.68977 4.10281 3.86021 3.93256C4.03046 3.76212 4.23264 3.62691 4.45519 3.53465C4.67773 3.4424 4.91627 3.39492 5.15718 3.39492C5.39809 3.39492 5.63663 3.4424 5.85918 3.53465C6.08172 3.62691 6.2839 3.76212 6.45415 3.93256L6.50915 3.98756C6.72517 4.19886 6.99953 4.34061 7.29687 4.39453C7.59421 4.44844 7.90088 4.41204 8.17733 4.29003H8.25066C8.52176 4.17384 8.75297 3.98092 8.91582 3.73501C9.07868 3.48909 9.16607 3.20093 9.16725 2.90599V2.75017C9.16725 2.26398 9.36039 1.7977 9.70417 1.45392C10.048 1.11013 10.5142 0.916992 11.0004 0.916992C11.4866 0.916992 11.9529 1.11013 12.2967 1.45392C12.6405 1.7977 12.8336 2.26398 12.8336 2.75017V2.83266C12.8348 3.1276 12.9222 3.41577 13.085 3.66168C13.2479 3.90759 13.4791 4.10051 13.7502 4.2167C14.0266 4.33872 14.3333 4.37511 14.6306 4.3212C14.928 4.26729 15.2023 4.12554 15.4184 3.91423L15.4734 3.85923C15.6436 3.68879 15.8458 3.55358 16.0683 3.46133C16.2909 3.36907 16.5294 3.32159 16.7703 3.32159C17.0112 3.32159 17.2498 3.36907 17.4723 3.46133C17.6949 3.55358 17.897 3.68879 18.0673 3.85923C18.2377 4.02949 18.373 4.23167 18.4652 4.45421C18.5575 4.67675 18.6049 4.9153 18.6049 5.1562C18.6049 5.39711 18.5575 5.63566 18.4652 5.8582C18.373 6.08074 18.2377 6.28292 18.0673 6.45317L18.0123 6.50817C17.801 6.72419 17.6593 6.99856 17.6053 7.29589C17.5514 7.59323 17.5878 7.8999 17.7098 8.17636V8.24968C17.826 8.52078 18.0189 8.75199 18.2649 8.91484C18.5108 9.0777 18.7989 9.16509 19.0939 9.16627H19.2497C19.7359 9.16627 20.2022 9.35941 20.5459 9.7032C20.8897 10.047 21.0829 10.5133 21.0829 10.9994C21.0829 11.4856 20.8897 11.9519 20.5459 12.2957C20.2022 12.6395 19.7359 12.8326 19.2497 12.8326H19.1672C18.8723 12.8338 18.5841 12.9212 18.3382 13.084C18.0923 13.2469 17.8993 13.4781 17.7832 13.7492Z" stroke="#EDEDED" strokeWidth="1.83317" strokeLinecap="round" stroke-linejoin="round"/>
</g>
<defs>
<clipPath id="clip0_1121_3264">
<rect width="23" height="21.9981" fill="white"/>
</clipPath>
</defs>
</svg>
